X: 10092
Q: "Slow."
M: C
L: 1/8
K: D
(A>G) |\
(Bc)(de) (fe)(dc) | ~B3c d2 :|
|: e>d |\
c2B>A A3f | e>cB>c A3F |\
(BA)(Bd) B2(AF) | (AF)(AB) d3e |\
(f>e)(dB) (AB/c/) (dG) | F2E2 {FG}D2 :|


